X:049
%%topmargin 3cm
T:Staten Island
B:The Nelson Music Collection
N:Newton F. Tolman & K. Dep. Gilbert
Z:Transcribed by Ralph Palmer
R:Hornpipe
L:1/16
M:2/4
K:D
A2 | FDFG A2A2 | dfed dcBA | B2GB A2FA | G2E2 E2A2 |
FDFG A2A2 | dfed dcBA | d2d2 efge | f2d2 d2 ::
fg | a2fa g2eg | f2df edA2 | =c2c2 e=fge | =c2c2 e=fge |
a2fa g2eg | f2df ecA2 | d2d2 efge | f2d2 d2 :|]

